!!!ONB: MCCC : ILB0168_02 : Extracted Monophonic Melody
!!!COM: Beethoven, Ludwig van
!!!OPR: Piano Sonata No.7
!!!OMV: 2
!!!SCT: Op.10 No.3
!!!ODT: 1797///
**kern
*thru
*staff1
*clefG2
*k[b-]
*d:
*M6/8
*MM40
=1
8d
8c#
8d
8f
8c#
8d
=2
8d
8c#
8d
8g
8c#
8d
=3
8f
8e
8d
4c#
8d
=4
8f
8e
8f#
4g
8a
=5
8b-
8b-
8b-
8b-
8b-
8b-
=6
8ee
8dd#
8ee
8gg
8dd#
8ee
=7
8ee
8ff
8ff
4ff
16.ee
32dd
=8
8dd
8a
8a
8a
8c#
8c#
=9
4d
8r
8.aa
16gg
16ff
16ee
=10
16.gg
32ff
[8ff
32ff]
64gg
64ff
32ee
32dd
16dd
16cc#
8cc#
8cc#
=11
16.dd
32ee
8ff
16r
16a
8.aa
16gg
16ff
16ee
=12
16.gg
32ff
8.ff
16ff#
8.gg
16ff
16ee
16dd
=13
8ff
8ee
8r
8r
8dd
8dd
=14
8.ee
32ff
32ee
16.dd
32ee
8.gg
16ff
16ee
16dd
=15
16dd#
16ee
8r
8r
8r
8ddd
8ddd
=16
[8eee
32eee]
32ccc
32gg
32ee
32cc
32g
32e
32c
8.g
16f
16d
16g
=17
4c
4d#
4d#
=18
8a
8g#
16.a
32b
8cc
32b
32cc
32b
32cc
32dd
32cc
32b
32a
=19
8a
8g#
8r
8.ff
16ee
16dd
16ff
=20
8ee
8r
8b
8cc
8r
8g#
=21
4a
8r
4r
8d#
=22
16e
8ee
16dd
16cc
16b
4a
16r
16d#
=23
16e
8ee
32dd#
32ee
32dd#
32ee
32dd#
32ee
8.ff
16ee
16dd
16ff
=24
8.bb-
16aa
16gg
16bb-
8.ccc
16bb
16aa
16ccc
=25
8gg#
8r
8aa
8ff
8r
8ee
=26
4a
8r
8r
8ee
8ee
=27
[8ee
16.ee]
64ff
64ee
16.dd
32ee
4ff
16ee
16dd
=28
8cc
16.cc
64dd
64cc
16.b
32cc
4dd
16cc
16b
=29
16a
16e
16c
16A
8r
4.r
=30
4r
8r
4c
16d
16e
=31
4f
8f
8.f
32g
32f
16e
16f
=32
8f#
4g
8c
8c
16.g
32f
=33
8f
8e
16.d
32c
4c
32e
32d
16c
=34
8c
4f[
8f]
8e
8e-
=35
8e-
8d
16.c#
32d
8e-
8d
16.c#
32d
=36
32d
32bb-
32ccc
32ddd
32r
32ddd
32ccc
32bb-
32r
32bb-
32aa
32gg
32r
32ff#
32gg
32dd
32r
32dd
32cc
32b-
32r
32b-
32a
32g
=37
8f
8e
16.d#
32e
8f
8e
16.d#
32e
=38
32e
32ccc#
32ddd
32eee
32r
32eee
32ddd
32ccc#
32r
32ccc#
32bb
32aa
32r
32gg#
32aa
32ee
32r
32ee
32dd
32cc#
32r
32cc#
32b
32a
=39
32r
32ddd
32eee
32fff
32r
32fff
32eee
32ddd
32r
32ccc#
32ddd
32aa
32r
32gg#
32bb-
32aa
32r
32aa
32gg
32ff
32r
32ff
32ee
32dd
=40
32r
32gg
32aa
32bb-
32r
32bb-
32aa
32gg
32r
32gg
32ff
32ee
32r
32ee
32dd
32cc#
32r
32b-
32a
32g
32r
32g
32f
32e
=41
32r
32e
32d
32c#
4r
4.r
=42
8r
8r
8r
32r
32e
32d
32c#
8r
8r
=43
32r
32e
32d
32c#
8b-[
32b-]
32a
32g
32f#
32f
32e
32d#
32d
8r
8r
=44
8d
8c#
8d
8f
8c#
8d
=45
8d
8c#
8d
8g
8c#
8d
=46
8f
8e
8d
4c#
8d
=47
8f
8e
8f#
8a
8g
8a
=48
8b-
8b-
8b-
8b-
8b-
8b-
=49
8b-
8b-
8b-
8b-
8b-
8b-
=50
8ee-
8dd
8ee-
8gg-
8dd
8ee-
=51
8aa
8gg#
8aa
8eee-
8eee-
8eee-
=52
4ddd
8r
8r
8ccc
8ccc
=53
8.ddd
32eee-
32ddd
16.ccc#
32ddd
8.fff
16eee-
16ddd
16ccc
=54
16ccc#
16ddd
8r
8r
8r
8ccc
8ccc
=55
[8ddd
32ddd]
32bb-
32ff
32dd
32b-
32f
32d
32B-
8.f
16e-
16c
16f
=56
4B-
8d
4f
16e
16d
=57
8d
8c#
16.d
32e
8f
32e
32f
32e
32f
32g
32f
32e
32d
=58
8d
8c#
8r
8.b-
16a
16g
16b-
=59
8a
8r
8e
8f
8r
8c#
=60
4d
8r
4r
8g#
=61
16a
8aa
16gg
16ff
16ee
4dd
16r
16g#
=62
16a
8aa
32gg#
32aa
32gg#
32aa
32gg#
32aa
8.bb-
16aa
16gg
16bb-
=63
8.ee-
16dd
16cc
16ee-
8.ff
16ee
16dd
16ff
=64
8cc#
8r
8ddd
8bb-
8r
8aa
=65
48r
48F
48A
48d
48A
48F
48r
48F
48A
48d
48A
48F
48r
48F
48A
48d
48A
48F
48r
48F
48A
48d
48A
48F
48r
48G
48A
48d
48A
48F
48r
48F
48A
48d
48A
48F
=66
48r
48F
48B-
48d
48B-
48F
48r
48F
48B-
48d
48B-
48F
48r
48F
48B-
48d
48B-
48F
48r
48F
48B-
48d
48B-
48F
48r
48F
48B-
48d
48B-
48F
48r
48F
48B-
48d
48B-
48F
=67
48r
48G-
48B-
48e-
48B-
48G-
48r
48G-
48B-
48e-
48B-
48G-
48r
48G-
48B-
48e-
48B-
48G-
48r
48G
48B-
48e
48B-
48G
48r
48G
48B-
48e
48B-
48G
48r
48G
48B-
48e
48B-
48G
=69
48r
48A
48c
48f#
48e-
48c
48r
48A
48c
48f#
48e-
48c
48r
48A
48c
48f#
48e-
48c
48r
48B-
48e-
48g
48e-
48B-
48r
48B-
48e-
48g
48e-
48B-
48r
48B-
48e-
48g
48e-
48B-
=70
48r
48B
48d
48a-
48f
48d
48r
48B
48d
48a-
48f
48d
48r
48B
48d
48a-
48f
48d
48r
48c
48f
48a
48f
48c
48r
48c
48f
48a
48f
48c
64r
64c#
64e
64g
64b-
64g
64e
64c#
=71
48r
48d
48f
48b
48a-
48f
48r
48d
48f
48b
48a-
48f
64r
64e-
64f#
64a
64cc
64a
64f#
64e-
48r
48e
48g
48cc#
48b-
48g
48r
48e
48g
48cc#
48b-
48g
48r
48f
48a
48dd
48a
48f
=73
64r
64g
64b-
64dd
64ee
64dd
64b-
64g
64r
64g
64b-
64dd
64ee
64dd
64b-
64g
64r
64g
64b-
64dd
64ee
64dd
64b-
64g
64r
64g#
64b
64dd
64ee
64dd
64b
64g#
64r
64g#
64b
64dd
64ee
64dd
64b
64g#
64r
64g#
64b
64dd
64ee
64dd
64b
64g#
=74
32ff
32ddd
32eee
32fff
32r
32fff
32eee
32ddd
32r
32ccc#
32ddd
32aa
32r
32gg#
32bb-
32aa
32r
32aa
32gg
32ff
32r
32ff
32ee
32dd
=75
32r
32gg
32aa
32bb-
32r
32bb-
32aa
32gg
32r
32gg
32ff
32ee
32r
32ee
32dd
32cc#
32r
32b-
32a
32g
32r
32g
32f
32e
=76
32r
32dd
32ee
32ff
32r
32ff
32ee
32dd
32r
32cc#
32dd
32a
32r
32g#
32b-
32a
32r
32a
32g
32f
32r
32f
32e
32d
=77
32r
32g
32a
32b-
32r
32b-
32a
32g
32r
32g
32f
32e
32r
32e
32d
32c#
32r
32B-
32A
32G
32r
32G
32F
32E
=78
4r
8r
8ff
8cc#
8dd
=79
4.bb-
8bb-
8cc#
8dd
=80
4.aa
8fff
8ccc#
8ddd
=81
8ddd
8aa
8bb-
8bb-
8ff#
8gg
=82
8gg
8dd
8ee-
4ee-
8dd
=83
4cc#
8r
4gg#
8aa
=84
4.f
4gg#
8aa
=85
4.e
4gg#
8aa
=86
4r
8d
4d
8d
=87
4d
8d
4d
8d
=88
4d
8cc#
8dd
8r
8ccc#
=89
8ddd
8r
8r
4r
8r
==
*-
